IMG/ICON/circle-up-solid.svg

<svg width="512" height="512" viewBox="0 0 512 512" fill="none" xmlns="http://www.w3.org/2000/svg">
<g clip-path="url(#clip0_249_4)">
<path d="M256 512C323.895 512 389.01 485.029 437.019 437.019C485.029 389.01 512 323.895 512 256C512 188.105 485.029 122.99 437.019 74.9807C389.01 26.9714 323.895 0 256 0C188.105 0 122.99 26.9714 74.9807 74.9807C26.9714 122.99 0 188.105 0 256C0 323.895 26.9714 389.01 74.9807 437.019C122.99 485.029 188.105 512 256 512ZM267.3 116.7L379.3 228.7C383.9 233.3 385.2 240.2 382.8 246.1C380.4 252 374.5 256 368 256H304V352C304 369.7 289.7 384 272 384H240C222.3 384 208 369.7 208 352V256H144C137.5 256 131.7 252.1 129.2 246.1C126.7 240.1 128.1 233.2 132.7 228.7L244.7 116.7C250.9 110.5 261.1 110.5 267.3 116.7Z" fill="#091729"/>
</g>
<defs>
<clipPath id="clip0_249_4">
<rect width="512" height="512" fill="white"/>
</clipPath>
</defs>
</svg>

<svg xmlns="http://www.w3.org/2000/svg" viewBox="0 0 512 512"><!--!Font Awesome Free 6.6.0 by @fontawesome - https://fontawesome.com License - https://fontawesome.com/license/free Copyright 2024 Fonticons, Inc.--><path d="M256 512A256 256 0 1 0 256 0a256 256 0 1 0 0 512zm11.3-395.3l112 112c4.6 4.6 5.9 11.5 3.5 17.4s-8.3 9.9-14.8 9.9l-64 0 0 96c0 17.7-14.3 32-32 32l-32 0c-17.7 0-32-14.3-32-32l0-96-64 0c-6.5 0-12.3-3.9-14.8-9.9s-1.1-12.9 3.5-17.4l112-112c6.2-6.2 16.4-6.2 22.6 0z"/></svg>
